X:620
M:C
L:1/8
K:C
e|c<GA<G c<GA<G|E<G c>E D>dd>e|c<GA<G C<G c>a|
g<c g>f e<cc:|
e/f/|g<ce<c g<ca<c|g<c ed/c/ B<d de/f/|g<ce<c g<ca<c|
c<G AG/F/ E<G c>a|g<c g>f e<cc||

